Flat-Remix-Dark/apps/scalable/preferences-desktop-sound.svg

<svg xmlns="http://www.w3.org/2000/svg" xmlns:xlink="http://www.w3.org/1999/xlink" width="384pt" height="384pt" version="1.1" viewBox="0 0 384 384"> <defs> <linearGradient id="linear0" x1="775.604" x2="-164.119" y1="-174.257" y2="625.426" gradientTransform="matrix(0.75,0,0,0.75,0,0)" gradientUnits="userSpaceOnUse"> <stop offset="0" style="stop-color:rgb(23.137%,54.509%,72.156%)"/> <stop offset="1" style="stop-color:rgb(72.156%,9.019%,29.803%);stop-opacity:0.996078"/> </linearGradient> <filter id="alpha" width="100%" height="100%" x="0%" y="0%" filterUnits="objectBoundingBox"> <feColorMatrix in="SourceGraphic" type="matrix" values="0 0 0 0 1 0 0 0 0 1 0 0 0 0 1 0 0 0 1 0"/> </filter> <mask id="mask0"> <g filter="url(#alpha)"> <rect width="384" height="384" x="0" y="0" style="fill:rgb(0%,0%,0%);fill-opacity:0.301961"/> </g> </mask> <clipPath id="clip1"> <rect width="384" height="384" x="0" y="0"/> </clipPath> <g id="surface5" clip-path="url(#clip1)"> <path style="fill:rgb(0%,0%,0%)" d="M 92.285156 166.703125 L 92.285156 232.296875 L 136.601562 232.296875 L 192 286.960938 L 192 112.042969 L 136.601562 166.703125 Z M 241.859375 199.5 C 241.859375 180.148438 230.558594 163.523438 214.160156 155.4375 L 214.160156 243.445312 C 230.558594 235.476562 241.859375 218.851562 241.859375 199.5 Z M 214.160156 103.621094 L 214.160156 126.132812 C 246.179688 135.53125 269.554688 164.835938 269.554688 199.5 C 269.554688 234.164062 246.179688 263.46875 214.160156 272.867188 L 214.160156 295.378906 C 258.585938 285.429688 291.714844 246.292969 291.714844 199.5 C 291.714844 152.707031 258.585938 113.570312 214.160156 103.621094 Z M 214.160156 103.621094"/> </g> <mask id="mask1"> <g filter="url(#alpha)"> <rect width="384" height="384" x="0" y="0" style="fill:rgb(0%,0%,0%);fill-opacity:0.101961"/> </g> </mask> <clipPath id="clip2"> <rect width="384" height="384" x="0" y="0"/> </clipPath> <g id="surface8" clip-path="url(#clip2)"> <path style="fill:rgb(100.000%,100.000%,100.000%)" d="M 192 23.25 C 98.804688 23.25 23.25 98.804688 23.25 192 C 23.285156 193.464844 23.335938 194.929688 23.40625 196.394531 C 25.097656 104.472656 100.0625 30.820312 192 30.75 C 283.449219 30.804688 358.210938 103.6875 360.59375 195.105469 C 360.65625 194.070312 360.707031 193.035156 360.75 192 C 360.75 98.804688 285.195312 23.25 192 23.25 Z M 192 23.25"/> </g> <mask id="mask2"> <g filter="url(#alpha)"> <rect width="384" height="384" x="0" y="0" style="fill:rgb(0%,0%,0%);fill-opacity:0.301961"/> </g> </mask> <clipPath id="clip3"> <rect width="384" height="384" x="0" y="0"/> </clipPath> <g id="surface11" clip-path="url(#clip3)"> <path style="fill:rgb(0%,0%,0%)" d="M 360.59375 187.605469 C 358.902344 279.527344 283.9375 353.179688 192 353.25 C 100.550781 353.195312 25.789062 280.3125 23.40625 188.894531 C 23.34375 189.929688 23.292969 190.964844 23.25 192 C 23.25 285.195312 98.804688 360.75 192 360.75 C 285.195312 360.75 360.75 285.195312 360.75 192 C 360.714844 190.535156 360.664062 189.070312 360.59375 187.605469 Z M 360.59375 187.605469"/> </g> </defs> <g> <path style="fill:url(#linear0)" d="M 360.75 192 C 360.75 285.199219 285.199219 360.75 192 360.75 C 98.800781 360.75 23.25 285.199219 23.25 192 C 23.25 98.800781 98.800781 23.25 192 23.25 C 285.199219 23.25 360.75 98.800781 360.75 192 Z M 360.75 192"/> <use mask="url(#mask0)" xlink:href="#surface5"/> <path style="fill:rgb(100.000%,100.000%,100.000%)" d="M 92.285156 159.203125 L 92.285156 224.796875 L 136.601562 224.796875 L 192 279.460938 L 192 104.542969 L 136.601562 159.203125 Z M 241.859375 192 C 241.859375 172.648438 230.558594 156.023438 214.160156 147.9375 L 214.160156 235.945312 C 230.558594 227.976562 241.859375 211.351562 241.859375 192 Z M 214.160156 96.121094 L 214.160156 118.632812 C 246.179688 128.03125 269.554688 157.335938 269.554688 192 C 269.554688 226.664062 246.179688 255.96875 214.160156 265.367188 L 214.160156 287.878906 C 258.585938 277.929688 291.714844 238.792969 291.714844 192 C 291.714844 145.207031 258.585938 106.070312 214.160156 96.121094 Z M 214.160156 96.121094"/> <use mask="url(#mask1)" xlink:href="#surface8"/> <use mask="url(#mask2)" xlink:href="#surface11"/> </g> </svg>

<svg width="512" height="512" version="1.1" viewBox="0 0 384 384" xmlns="http://www.w3.org/2000/svg"><defs><linearGradient id="a" x1="775.6" x2="-164.12" y1="-174.26" y2="625.43" gradientTransform="scale(.75)" gradientUnits="userSpaceOnUse"><stop stop-color="#3a8ab7" offset="0"/><stop stop-color="#b7164b" stop-opacity=".99608" offset="1"/></linearGradient><clipPath><rect width="384" height="384"/></clipPath></defs><path d="m360.75 192c0 93.199-75.551 168.75-168.75 168.75s-168.75-75.551-168.75-168.75 75.551-168.75 168.75-168.75 168.75 75.551 168.75 168.75z" fill="url(#a)"/><path d="m92.285 166.7v65.594h44.316l55.398 54.664v-174.92l-55.398 54.66zm149.57 32.797c0-19.352-11.301-35.977-27.699-44.062v88.008c16.398-7.9688 27.699-24.594 27.699-43.945zm-27.699-95.879v22.512c32.02 9.3984 55.395 38.703 55.395 73.367s-23.375 63.969-55.395 73.367v22.512c44.426-9.9492 77.555-49.086 77.555-95.879s-33.129-85.93-77.555-95.879z" opacity=".3"/><path d="m92.285 159.2v65.594h44.316l55.398 54.664v-174.92l-55.398 54.66zm149.57 32.797c0-19.352-11.301-35.977-27.699-44.062v88.008c16.398-7.9688 27.699-24.594 27.699-43.945zm-27.699-95.879v22.512c32.02 9.3984 55.395 38.703 55.395 73.367s-23.375 63.969-55.395 73.367v22.512c44.426-9.9492 77.555-49.086 77.555-95.879s-33.129-85.93-77.555-95.879z" fill="#fff"/><path transform="scale(.75)" d="m31.064 251c-0.036282 1.6632-0.064453 3.3281-0.064453 5 0 124.27 100.73 225 225 225s225-100.73 225-225c0-1.6719-0.0282-3.3368-0.0645-5-2.6603 121.96-102.34 220-224.94 220s-222.28-98.045-224.94-220z" opacity=".3" stroke-width="1.3333"/><path transform="scale(.75)" d="m256 31c-124.27 0-225 100.73-225 225 0 1.6719 0.02817 3.3368 0.06445 5 2.6604-121.96 102.34-220 224.94-220 122.59 0 222.28 98.045 224.94 220 0.03628-1.6632 0.06445-3.3281 0.06445-5 1e-5 -124.27-100.73-225-225-225z" fill="#fff" opacity=".3" stroke-width="1.3333"/></svg>
